src/assets/images/landing/threeDimensionalSvgs/neon_right_coin.svg

<svg width="277" height="270" viewBox="0 0 277 270" fill="none" xmlns="http://www.w3.org/2000/svg">
<g clip-path="url(#clip0_1598_1708)">
<path d="M250.592 110.394C266.341 121.236 273.009 131.103 274.351 145.321L275.774 190.522C274.514 178.161 270.095 168.01 252.015 155.581C251.663 144.454 251.188 129.612 250.849 118.471C250.768 116.045 250.673 112.82 250.592 110.339" fill="url(#paint0_linear_1598_1708)"/>
<path d="M250.592 110.394C266.341 121.236 273.009 131.103 274.351 145.321L275.774 190.522C274.514 178.161 270.095 168.01 252.015 155.581C251.663 144.454 251.188 129.612 250.849 118.471C250.768 116.045 250.673 112.82 250.592 110.339" stroke="#29252B" stroke-width="1.5" stroke-linecap="round" stroke-linejoin="round"/>
<path d="M26.1987 159.62C10.4359 148.696 3.78114 138.897 2.43934 124.693L1.08398 79.4915C2.34446 91.8523 6.76292 102.004 24.8433 114.432C25.1957 125.56 25.6565 140.415 26.0089 151.542C26.0903 153.968 26.1851 157.207 26.2665 159.674" fill="url(#paint1_linear_1598_1708)"/>
<path d="M26.1987 159.62C10.4359 148.696 3.78114 138.897 2.43934 124.693L1.08398 79.4915C2.34446 91.8523 6.76292 102.004 24.8433 114.432C25.1957 125.56 25.6565 140.415 26.0089 151.542C26.0903 153.968 26.1851 157.207 26.2665 159.674" stroke="#29252B" stroke-width="1.5" stroke-linecap="round" stroke-linejoin="round"/>
<path d="M62.3457 241.876L82.9606 254.075C134.152 283.635 205.078 257.029 241.361 194.642C277.644 132.255 265.649 57.6838 214.389 28.1236L193.774 15.9254C244.966 45.4857 257.069 120.03 220.787 182.417C184.504 244.804 113.592 271.437 62.3457 241.876Z" fill="#DDDADA" stroke="#29252B" stroke-width="1.5" stroke-linecap="round" stroke-linejoin="round"/>
<path d="M193.815 15.9525C142.569 -13.5535 71.6573 13.0114 35.3745 75.3983C-0.908299 137.785 11.195 212.316 62.3461 241.876C113.497 271.437 184.463 244.831 220.733 182.444C257.002 120.057 244.966 45.5128 193.815 15.9525Z" fill="white" stroke="#29252B" stroke-width="1.5" stroke-linecap="round" stroke-linejoin="round"/>
<path d="M180.909 31.4353L186 34.3498C141.037 8.67053 78.9017 31.8651 47.2705 86.1783C15.6392 140.491 26.3368 205.321 71.2994 231L66.2085 228.086C21.2324 202.406 10.5483 137.564 42.166 83.2639C73.7837 28.9641 135.947 5.82325 180.909 31.4353Z" fill="#29252B" stroke="#29252B" stroke-width="1.5" stroke-linecap="round" stroke-linejoin="round"/>
<path d="M183.826 33.4637C139.371 7.80684 77.9596 30.9834 46.6374 85.2382C15.3151 139.493 25.9411 204.279 70.3832 229.936C114.825 255.593 176.236 232.416 207.559 178.161C238.881 123.906 228.255 59.1205 183.826 33.4637Z" fill="#8773A8" stroke="#29252B" stroke-width="1.5" stroke-linecap="round" stroke-linejoin="round"/>
<path d="M195.983 89.1259C195.929 88.0865 195.527 87.0957 194.842 86.3119C194.158 85.5281 193.23 84.9967 192.208 84.803L138.89 75.3901C137.627 75.1963 136.338 75.5014 135.296 76.2408C134.253 76.9802 133.539 78.0962 133.303 79.3529L125.683 117.458L124.661 122.617L88.5932 67.9992C86.27 64.5129 80.7406 65.8493 79.9856 69.9747L58.1128 179.537C57.9758 180.147 57.9635 180.779 58.0765 181.394C58.1895 182.01 58.4255 182.596 58.7704 183.118C59.1154 183.64 59.562 184.087 60.0838 184.432C60.6055 184.777 61.1915 185.013 61.8066 185.126L115.101 194.527C115.843 194.656 116.605 194.606 117.324 194.381C118.043 194.157 118.698 193.765 119.236 193.238C119.989 192.523 120.504 191.594 120.711 190.576L129.354 147.323L135.266 156.283L165.41 201.965C165.882 202.659 166.532 203.212 167.293 203.566C168.054 203.92 168.896 204.062 169.731 203.975C170.665 203.857 171.547 203.479 172.277 202.883C173.006 202.287 173.553 201.497 173.855 200.605C174.087 200.129 195.728 90.9854 195.925 90.416C195.998 89.9901 196.018 89.5566 195.983 89.1259ZM84.0279 97.9114L86.9784 83.118L92.8911 92.066L116.75 128.207L79.3004 121.595L84.0279 97.9114ZM69.7055 169.624C71.5409 160.432 75.5831 140.153 77.3836 131.147L114.834 137.748L111.93 139.816C105.285 144.488 75.7227 165.417 69.7055 169.624ZM118.028 155.795C116.785 162.047 113.661 177.712 112.371 184.15L74.9211 177.538L120.049 145.662L118.028 155.795ZM133.954 124.256C135.533 116.307 139.994 94.0417 141.632 85.756L179.094 92.3682L176.945 93.8906L133.954 124.256ZM174.227 150.786C172.263 160.583 168.999 176.957 167.036 186.811L147.672 157.492L147.091 156.62L137.264 141.734L174.714 148.334L174.227 150.786ZM182.288 110.404L176.62 138.759L139.181 132.146L145.663 127.58L184.309 100.27L182.288 110.404Z" fill="white" stroke="#29252B" stroke-width="1.5" stroke-linecap="round" stroke-linejoin="round"/>
<path d="M274.35 145.321C273.212 174.109 243.408 195.632 194.629 202.896C194.425 196.635 194.168 188.286 193.964 182.01C168.899 197.341 141.316 208.111 112.494 213.821C136.348 239.898 159.159 254.806 196.702 268.983C196.499 262.722 196.241 254.373 196.038 248.097C244.831 240.792 274.649 219.269 275.774 190.522L274.35 145.321Z" fill="url(#paint2_linear_1598_1708)"/>
<path d="M274.35 145.321C273.212 174.109 243.408 195.632 194.629 202.896C194.425 196.635 194.168 188.286 193.964 182.01C168.899 197.341 141.316 208.111 112.494 213.821C136.348 239.898 159.159 254.806 196.702 268.983C196.499 262.722 196.241 254.373 196.038 248.097C244.831 240.792 274.649 219.269 275.774 190.522L274.35 145.321" stroke="#29252B" stroke-width="1.5" stroke-linecap="round" stroke-linejoin="round"/>
<path d="M2.43972 124.693C3.57822 95.9048 33.3824 74.3818 82.1616 67.1171C82.3514 73.3788 82.6224 81.7414 82.8122 88.0031C107.871 72.6808 135.444 61.9158 164.255 56.2065C140.442 30.1702 117.618 15.2206 80.0879 1.01652C80.2912 7.27825 80.5488 15.6408 80.7385 21.9025C31.9458 29.2079 2.12799 50.7444 1.0166 79.4779L2.43972 124.693Z" fill="url(#paint3_linear_1598_1708)" stroke="#29252B" stroke-width="1.5" stroke-linecap="round" stroke-linejoin="round"/>
</g>
<defs>
<linearGradient id="paint0_linear_1598_1708" x1="232.186" y1="132.201" x2="283.69" y2="162.534" gradientUnits="userSpaceOnUse">
<stop stop-color="#29252B"/>
<stop offset="1" stop-color="#87DA65"/>
</linearGradient>
<linearGradient id="paint1_linear_1598_1708" x1="44.6179" y1="137.812" x2="-6.89904" y2="107.48" gradientUnits="userSpaceOnUse">
<stop stop-color="#29252B"/>
<stop offset="1" stop-color="#87DA65"/>
</linearGradient>
<linearGradient id="paint2_linear_1598_1708" x1="279.609" y1="196.133" x2="133.272" y2="232.714" gradientUnits="userSpaceOnUse">
<stop stop-color="#29252B"/>
<stop offset="1" stop-color="#87DA65"/>
</linearGradient>
<linearGradient id="paint3_linear_1598_1708" x1="-2.81905" y1="73.8803" x2="143.518" y2="37.2858" gradientUnits="userSpaceOnUse">
<stop stop-color="#29252B"/>
<stop offset="1" stop-color="#87DA65"/>
</linearGradient>
<clipPath id="clip0_1598_1708">
<rect width="276.79" height="270" fill="white"/>
</clipPath>
</defs>
</svg>

<svg xmlns="http://www.w3.org/2000/svg" width="277" height="270" fill="none"><g clip-path="url(#a)"><path fill="url(#b)" d="M250.592 110.394c15.749 10.842 22.417 20.709 23.759 34.927l1.423 45.201c-1.26-12.361-5.679-22.512-23.759-34.941-.352-11.127-.827-25.969-1.166-37.11-.081-2.426-.176-5.651-.257-8.132"/><path stroke="#29252B" stroke-linecap="round" stroke-linejoin="round" stroke-width="1.5" d="M250.592 110.394c15.749 10.842 22.417 20.709 23.759 34.927l1.423 45.201c-1.26-12.361-5.679-22.512-23.759-34.941-.352-11.127-.827-25.969-1.166-37.11-.081-2.426-.176-5.651-.257-8.132"/><path fill="url(#c)" d="M26.199 159.62c-15.763-10.924-22.418-20.723-23.76-34.927L1.084 79.492c1.26 12.36 5.679 22.512 23.76 34.94.352 11.128.813 25.983 1.165 37.11.081 2.426.176 5.665.258 8.132"/><path stroke="#29252B" stroke-linecap="round" stroke-linejoin="round" stroke-width="1.5" d="M26.199 159.62c-15.763-10.924-22.418-20.723-23.76-34.927L1.084 79.492c1.26 12.36 5.679 22.512 23.76 34.94.352 11.128.813 25.983 1.165 37.11.081 2.426.176 5.665.258 8.132"/><path fill="#DDDADA" stroke="#29252B" stroke-linecap="round" stroke-linejoin="round" stroke-width="1.5" d="m62.346 241.876 20.615 12.199c51.191 29.56 122.117 2.954 158.4-59.433s24.288-136.958-26.972-166.518l-20.615-12.199c51.192 29.56 63.295 104.105 27.013 166.492-36.283 62.387-107.195 89.02-158.441 59.459"/><path fill="#fff" stroke="#29252B" stroke-linecap="round" stroke-linejoin="round" stroke-width="1.5" d="M193.815 15.953C142.569-13.553 71.657 13.01 35.375 75.398c-36.283 62.387-24.18 136.918 26.971 166.478s122.117 2.955 158.387-59.432 24.233-136.931-26.918-166.491"/><path fill="#29252B" stroke="#29252B" stroke-linecap="round" stroke-linejoin="round" stroke-width="1.5" d="M180.909 31.435 186 34.35C141.037 8.67 78.902 31.865 47.27 86.178 15.64 140.491 26.338 205.321 71.3 231l-5.091-2.914c-44.977-25.68-55.66-90.522-24.043-144.822 31.618-54.3 93.781-77.44 138.743-51.829"/><path fill="#8773A8" stroke="#29252B" stroke-linecap="round" stroke-linejoin="round" stroke-width="1.5" d="M183.826 33.464C139.371 7.807 77.96 30.984 46.637 85.238 15.315 139.493 25.941 204.28 70.383 229.936s105.853 2.48 137.176-51.775 20.696-119.04-23.733-144.697"/><path fill="#fff" stroke="#29252B" stroke-linecap="round" stroke-linejoin="round" stroke-width="1.5" d="M195.983 89.126a4.644 4.644 0 0 0-3.775-4.323L138.89 75.39a4.929 4.929 0 0 0-5.587 3.963l-7.62 38.105-1.022 5.159-36.068-54.618c-2.323-3.486-7.852-2.15-8.607 1.976L58.113 179.537a4.646 4.646 0 0 0 3.694 5.589l53.294 9.401a4.753 4.753 0 0 0 4.135-1.289 5.06 5.06 0 0 0 1.475-2.662l8.643-43.253 5.912 8.96 30.144 45.682a4.65 4.65 0 0 0 4.321 2.01 5.02 5.02 0 0 0 4.124-3.37c.232-.476 21.873-109.62 22.07-110.189.073-.426.093-.86.058-1.29M84.028 97.91l2.95-14.793 5.913 8.948 23.859 36.141-37.45-6.612zm-14.323 71.713c1.836-9.192 5.878-29.471 7.679-38.477l37.45 6.601-2.904 2.068c-6.645 4.672-36.207 25.601-42.225 29.808m48.323-13.829c-1.243 6.252-4.367 21.917-5.657 28.355l-37.45-6.612 45.128-31.876zm15.926-31.539c1.579-7.949 6.04-30.214 7.678-38.5l37.462 6.612-2.149 1.523zm40.273 26.53c-1.964 9.797-5.228 26.171-7.191 36.025l-19.364-29.319-.581-.872-9.827-14.886 37.45 6.6zm8.061-40.382-5.668 28.355-37.439-6.613 6.482-4.566 38.646-27.31z"/><path fill="url(#d)" d="M274.35 145.321c-1.138 28.788-30.942 50.311-79.721 57.575-.204-6.261-.461-14.61-.665-20.886a248.8 248.8 0 0 1-81.47 31.811c23.854 26.077 46.665 40.985 84.208 55.162-.203-6.261-.461-14.61-.664-20.886 48.793-7.305 78.611-28.828 79.736-57.575z"/><path stroke="#29252B" stroke-linecap="round" stroke-linejoin="round" stroke-width="1.5" d="M274.35 145.321c-1.138 28.788-30.942 50.311-79.721 57.575-.204-6.261-.461-14.61-.665-20.886a248.8 248.8 0 0 1-81.47 31.811c23.854 26.077 46.665 40.985 84.208 55.162-.203-6.261-.461-14.61-.664-20.886 48.793-7.305 78.611-28.828 79.736-57.575z"/><path fill="url(#e)" stroke="#29252B" stroke-linecap="round" stroke-linejoin="round" stroke-width="1.5" d="M2.44 124.693c1.138-28.788 30.942-50.311 79.722-57.576.19 6.262.46 14.624.65 20.886a248.9 248.9 0 0 1 81.443-31.796C140.442 30.17 117.618 15.22 80.088 1.017c.203 6.261.46 14.624.65 20.886-48.792 7.305-78.61 28.841-79.721 57.575z"/></g><defs><linearGradient id="b" x1="232.186" x2="283.69" y1="132.201" y2="162.534" gradientUnits="userSpaceOnUse"><stop stop-color="#29252B"/><stop offset="1" stop-color="#87DA65"/></linearGradient><linearGradient id="c" x1="44.618" x2="-6.899" y1="137.812" y2="107.48" gradientUnits="userSpaceOnUse"><stop stop-color="#29252B"/><stop offset="1" stop-color="#87DA65"/></linearGradient><linearGradient id="d" x1="279.609" x2="133.272" y1="196.133" y2="232.714" gradientUnits="userSpaceOnUse"><stop stop-color="#29252B"/><stop offset="1" stop-color="#87DA65"/></linearGradient><linearGradient id="e" x1="-2.819" x2="143.518" y1="73.88" y2="37.286" gradientUnits="userSpaceOnUse"><stop stop-color="#29252B"/><stop offset="1" stop-color="#87DA65"/></linearGradient><clipPath id="a"><path fill="#fff" d="M0 0h276.79v270H0z"/></clipPath></defs></svg>
